!!!OTL@@DE: Der Kr&auml;hwinkler Landstrum
!!!ONB: Volkslied
!!!ODT: 1813
!!!OMD: Schrittm&auml;ssig
!!!OCL: Erk, Ludwig
!!!GCO: Deutscher Liederschatz, Band 1
**kern	**kern	**kern
*staff3	*staff2	*staff1
*Ipiano	*Ipiano	*Ivox
*>[A,B,A]	*>[A,B,A]	*>[A,B,A]
*>A	*>A	*>A
*clefF4	*clefG2	*clefG2
*k[b-]	*k[b-]	*k[b-]
*F:	*F:	*F:
*met(C)	*met(C)	*met(C)
*M4/4	*M4/4	*M4/4
*MM94	*MM94	*MM94
4r	8.a/ 8.cc/L	8.cc\
.	16g/ 16b-/Jk	16b-\
=1	=1	=1
4FF/ 4F/	4f/ 4a/	4a/
4r	4A/ 4c/ 4f/	8.f/
.	.	16f/
4FF/ 4F/	4A/ 4c/ 4f/	4f/
4r	8.f\ 8.a\ 8.cc\ 8.ff\L	8.ff\
.	16cc\ 16ee\Jk	16ee\
=2	=2	=2
4BBB-/ 4BB-/	4f/ 4b-/ 4dd/	4dd\
4r	4d/ 4f/ 4b-/	8.b-\
.	.	16b-\
4GGG/ 4GG/	4d/ 4f/ 4b-/	4b-\
4r	8.d/ 8.f/ 8.b-/L	8.b-\
.	16f/ 16a/Jk	16a/
=3	=3	=3
4CC/ 4C/	4c/ 4e/ 4g/	4g/
4r	4c/ 4e/ 4g/	8.g/
.	.	16g/
4CC/ 4C/	4e/ 4g/ 4cc/	4cc\
4r	4e/ 4g/ 4cc/	4cc\
=4	=4	=4
4FF/ 4F/	4c/ 4f/ 4a/	4a/
4C/	4c/ 4e/ 4g/	8.g/
.	.	16g/
4FF/	4A/ 4c/ 4f/	4f/
=	=	=
*>B	*>B	*>B
4r	8a\ 8cc\L	4cc/
.	8a\ 8cc\J	.
=5	=5	=5
4F\ 4c\	4f/ 4a/	4a/
4r	4a\ 4cc\	4cc/
4F\ 4c\	4f/ 4a/	4a/
4r	4a\ 4cc\	4cc/
=6	=6	=6
4C\ 4c\	8b-\ (8dd\L	8dd\L
.	8a\ 8cc\J)	8cc\J
4C\ 4c\	8g/ 8b-/L	8b-/L
.	8f/ 8a/J	8a/J
4C\ 4c\	4g/ 4b-/	4b-\
4r	8g/ 8b-/L	4b-/
.	8g/ 8b-/J	.
=7	=7	=7
4C\ 4c\	4e/ 4g/	4g/
4r	4g/ 4b-/	8b-\
.	.	8b-\
4C\ 4c\	4e/ 4g/	4g/
4r	4g/ 4b-/	4b-/
=8	=8	=8
4F\ 4c\	(8a/ 8cc/L	8cc\L
.	8g/) 8b-/	8b-\J
4F\ 4c\	8f/ 8a/	8a\L
.	8e/ 8g/J	8g\J
4F\ 4c\	4f/ 4a/	4a/
=	=	=
*-	*-	*-
!!!ENC: Craig Stuart Sapp
!!!END: 2004/06/27/
!!!EFL: 152/651
